X:1
T: Begone Dull Care
C:
R:Jig
Q:180
K:D
M:6/8
L:1/16
|:A2|d6 e6|f6 f4g2|a2b2a2 a2g2f2|f6 e4A2|
d6 e6|f6 a4g2|f2g2f2 e2d2e2|d6 d4:|
|:f2|a4a2 a2g2f2|g4g2 g4e2|f2g2a2 a2g2f2|f6 e4A2|
d6 e6|f6 a4g2|f2g2f2 e2d2e2|d6 d4:|

